X: 32624
T: Pleasant Avenue
R: slip jig
M: 9/8
K: Gmajor
D|:~G3 GAB|dAG FzE>z2|DDE FG2|z BAG (3Bcd|
Bc2 deg|ddc B <z/|~G3 GAB|
dAG FzE>z2|<zDD EF|G2c BGc|
M:9/8
Adc ADE FGA:|
M:6/8
|:d2g2>d2|z cB2 d2|>A2 z D|~G3 GAB|dBd c2d|egd dcB|
d2g2>d2|z cB2 d2|>A2 z D|~G3 BAG|(3Bcd B cdB|AGF GBc|
d2g2>d2|z cB2 d2|>A2 z D|~G3 GAB|dBd c2d|egf edc|
d2b2> a2>g z/|
M:9/8
~e3 efg edc|dgd dcB cdB|1 cdB AGF GBc:|2 cdB AGF G3 z2||

